img/icons/arrow-down.svg

<svg width="12" height="16" viewBox="0 0 12 16" fill="none" xmlns="http://www.w3.org/2000/svg">
<g opacity="0.3">
<path d="M0.63847 5.09805C0.56899 5.17667 0.513866 5.27007 0.476254 5.37289C0.438641 5.47571 0.419281 5.58595 0.419281 5.69727C0.419281 5.8086 0.438641 5.91883 0.476254 6.02165C0.513866 6.12448 0.56899 6.21787 0.63847 6.29649L5.59841 11.9231C5.65363 11.9859 5.71922 12.0357 5.79142 12.0696C5.86363 12.1036 5.94103 12.1211 6.0192 12.1211C6.09737 12.1211 6.17478 12.1036 6.24698 12.0696C6.31918 12.0357 6.38477 11.9859 6.43999 11.9231L11.3999 6.29649C11.6924 5.96472 11.6924 5.42982 11.3999 5.09805C11.1075 4.76628 10.8004 5.04112 10.5079 5.37289L7.9079 8.3364L5.99993 10.4241L1.19995 5.09079C1.19995 5.09079 0.924965 4.76628 0.63847 5.09805Z" fill="black"/>
</g>
</svg>

<svg width="12" height="16" fill="none" xmlns="http://www.w3.org/2000/svg"><path d="M.638 5.098a.862.862 0 00-.162.275.946.946 0 000 .649.861.861 0 00.162.274l4.96 5.627a.605.605 0 00.193.147.534.534 0 00.456 0 .594.594 0 00.193-.147l4.96-5.627a.928.928 0 000-1.198c-.293-.332-.6-.057-.892.275l-2.6 2.963L6 10.424 1.2 5.091s-.275-.325-.562.007z" fill="#000" opacity=".3"/></svg>
